toothbrush-electric.svg

<svg fill="currentColor" viewBox="0 0 24 24"><path d="M12 1.5V14c-1.66 0-3 1.34-3 3v5h8v-5c0-1.66-1.34-3-3-3V3.5a2 2 0 0 0-2-2M7.5 2v7H11V7.5H9v-4h2V2zM13 17.5c.83 0 1.5.67 1.5 1.5s-.67 1.5-1.5 1.5-1.5-.67-1.5-1.5.67-1.5 1.5-1.5"/></svg>

<svg  viewBox="0 0 24 24" fill="currentColor"><path  d="M12 1.5V14C10.34 14 9 15.34 9 17V22H17V17C17 15.34 15.66 14 14 14V3.5C14 2.4 13.11 1.5 12 1.5M7.5 2V9H11V7.5H9V3.5H11V2H7.5M13 17.5C13.83 17.5 14.5 18.17 14.5 19C14.5 19.83 13.83 20.5 13 20.5C12.17 20.5 11.5 19.83 11.5 19C11.5 18.17 12.17 17.5 13 17.5Z"/></svg>
